puzzle-minus-outline.svg

<svg fill="currentColor" viewBox="0 0 24 24"><path d="M13.2 22v-.3c0-1.49-1.2-2.7-2.7-2.7s-2.7 1.21-2.7 2.7v.3H4a2 2 0 0 1-2-2v-3.8h.3C3.79 16.2 5 15 5 13.5s-1.21-2.7-2.7-2.7H2V7c0-1.1.9-2 2-2h3.04c.24-1.7 1.7-3 3.46-3s3.22 1.3 3.46 3H17a2 2 0 0 1 2 2v3.04c1.7.24 3 1.7 3 3.46 0 .1 0 .2-.03.29-.62-.35-1.3-.59-2.04-.71-.18-.62-.75-1.08-1.43-1.08H17V7h-5V5.5c0-.83-.67-1.5-1.5-1.5S9 4.67 9 5.5V7H4v2.12c1.76.68 3 2.38 3 4.38s-1.25 3.7-3 4.38V20h2.12a4.7 4.7 0 0 1 4.38-3c.97 0 1.87.3 2.62.81a5.956 5.956 0 0 0 .69 4.19zm1.8-4v2h8v-2z"/></svg>

<svg  viewBox="0 0 24 24" fill="currentColor"><path  d="M13.2 22V21.7C13.2 20.21 12 19 10.5 19C9 19 7.8 20.21 7.8 21.7V22H4C2.9 22 2 21.11 2 20V16.2H2.3C3.79 16.2 5 15 5 13.5S3.79 10.8 2.3 10.8H2V7C2 5.9 2.9 5 4 5H7.04C7.28 3.3 8.74 2 10.5 2S13.72 3.3 13.96 5H17C18.11 5 19 5.9 19 7V10.04C20.7 10.28 22 11.74 22 13.5C22 13.6 22 13.7 21.97 13.79C21.35 13.44 20.67 13.2 19.93 13.08C19.75 12.46 19.18 12 18.5 12H17V7H12V5.5C12 4.67 11.33 4 10.5 4S9 4.67 9 5.5V7H4V9.12C5.76 9.8 7 11.5 7 13.5S5.75 17.2 4 17.88V20H6.12C6.8 18.25 8.5 17 10.5 17C11.47 17 12.37 17.3 13.12 17.81C13.04 18.19 13 18.59 13 19C13 20.1 13.3 21.12 13.81 22H13.2M15 18V20H23V18H15Z"/></svg>
